X: 1
T: Over The Water To Bessie
M: 4/4
L: 1/8
R: reel
K: Dmaj
dB|:A2FA BAFA|~A2FD EDEF|A2FA BAFB|1ABAF D3A:|2ABAF D3g||
|:~f3d g2ge|~f3d ~e3c|defg a2ab|1afed Bdde:|2afed Bdd2||
